app/assets/images/icons/active/place--pin.svg

<?xml version="1.0" encoding="UTF-8" standalone="no"?>
<svg width="32px" height="232px" viewBox="0 0 32 232" version="1.1" xmlns="http://www.w3.org/2000/svg" xmlns:xlink="http://www.w3.org/1999/xlink" xmlns:sketch="http://www.bohemiancoding.com/sketch/ns">
    <title>place--pin</title>
    <description>Created with Sketch (http://www.bohemiancoding.com/sketch)</description>
    <defs></defs>
    <g id="Points-of-interest" stroke="none" stroke-width="1" fill="none" fill-rule="evenodd" sketch:type="MSPage">
        <path d="M15.9989697,0 C22.6279729,0 28,4.654 28,11.648 C28,18.482 21.9459088,21.417 18.7200137,25.788 C16.083455,29.357 15.9989697,32 15.9989697,32 C15.9989697,32 15.9793938,29.344 13.278956,25.788 C9.96033313,21.417 4,18.684 4,11.648 C4,4.652 9.37305744,0 15.9989697,0 M15.999,7.681 C13.7,7.681 11.839,9.542 11.839,11.841 C11.839,14.136 13.7,16 15.999,16 C18.293,16 20.161,14.136 20.161,11.841 C20.161,9.542 18.293,7.681 15.999,7.681 L15.999,7.681 Z M15.999,7.681" id="point-pin--dark-blue-copy" fill="#3B444F" sketch:type="MSShapeGroup"></path>
        <path d="M15.9989697,40 C22.6279729,40 28,44.654 28,51.648 C28,58.482 21.9459088,61.417 18.7200137,65.788 C16.083455,69.357 15.9989697,72 15.9989697,72 C15.9989697,72 15.9793938,69.344 13.278956,65.788 C9.96033313,61.417 4,58.684 4,51.648 C4,44.652 9.37305744,40 15.9989697,40 M15.999,47.681 C13.7,47.681 11.839,49.542 11.839,51.841 C11.839,54.136 13.7,56 15.999,56 C18.293,56 20.161,54.136 20.161,51.841 C20.161,49.542 18.293,47.681 15.999,47.681 L15.999,47.681 Z M15.999,47.681" id="point-pin--dark-blue-copy-2" fill="#67747C" sketch:type="MSShapeGroup"></path>
        <path d="M15.9989697,80 C22.6279729,80 28,84.654 28,91.648 C28,98.482 21.9459088,101.417 18.7200137,105.788 C16.083455,109.357 15.9989697,112 15.9989697,112 C15.9989697,112 15.9793938,109.344 13.278956,105.788 C9.96033313,101.417 4,98.684 4,91.648 C4,84.652 9.37305744,80 15.9989697,80 M15.999,87.681 C13.7,87.681 11.839,89.542 11.839,91.841 C11.839,94.136 13.7,96 15.999,96 C18.293,96 20.161,94.136 20.161,91.841 C20.161,89.542 18.293,87.681 15.999,87.681 L15.999,87.681 Z M15.999,87.681" id="point-pin--dark-blue-copy-3" fill="#FFFFFF" sketch:type="MSShapeGroup"></path>
        <path d="M15.9989697,120 C22.6279729,120 28,124.654 28,131.648 C28,138.482 21.9459088,141.417 18.7200137,145.788 C16.083455,149.357 15.9989697,152 15.9989697,152 C15.9989697,152 15.9793938,149.344 13.278956,145.788 C9.96033313,141.417 4,138.684 4,131.648 C4,124.652 9.37305744,120 15.9989697,120 M15.999,127.681 C13.7,127.681 11.839,129.542 11.839,131.841 C11.839,134.136 13.7,136 15.999,136 C18.293,136 20.161,134.136 20.161,131.841 C20.161,129.542 18.293,127.681 15.999,127.681 L15.999,127.681 Z M15.999,127.681" id="point-pin--dark-blue-copy-4" fill="#206FAC" sketch:type="MSShapeGroup"></path>
    </g>
</svg>

<svg width="32" height="232" viewBox="0 0 32 232" xmlns="http://www.w3.org/2000/svg" xmlns:sketch="http://www.bohemiancoding.com/sketch/ns"><title>place--pin</title><g sketch:type="MSPage" fill="none"><path d="M15.999 0c6.629 0 12.001 4.654 12.001 11.648 0 6.834-6.054 9.769-9.28 14.14-2.637 3.569-2.721 6.212-2.721 6.212s-.02-2.656-2.72-6.212c-3.319-4.371-9.279-7.104-9.279-14.14 0-6.996 5.373-11.648 11.999-11.648m0 7.681c-2.299 0-4.16 1.861-4.16 4.16 0 2.295 1.861 4.159 4.16 4.159 2.294 0 4.162-1.864 4.162-4.159 0-2.299-1.868-4.16-4.162-4.16zm0 0" fill="#3B444F" sketch:type="MSShapeGroup"/><path d="M15.999 40c6.629 0 12.001 4.654 12.001 11.648 0 6.834-6.054 9.769-9.28 14.14-2.637 3.569-2.721 6.212-2.721 6.212s-.02-2.656-2.72-6.212c-3.319-4.371-9.279-7.104-9.279-14.14 0-6.996 5.373-11.648 11.999-11.648m0 7.681c-2.299 0-4.16 1.861-4.16 4.16 0 2.295 1.861 4.159 4.16 4.159 2.294 0 4.162-1.864 4.162-4.159 0-2.299-1.868-4.16-4.162-4.16zm0 0" fill="#67747C" sketch:type="MSShapeGroup"/><path d="M15.999 80c6.629 0 12.001 4.654 12.001 11.648 0 6.834-6.054 9.769-9.28 14.14-2.637 3.569-2.721 6.212-2.721 6.212s-.02-2.656-2.72-6.212c-3.319-4.371-9.279-7.104-9.279-14.14 0-6.996 5.373-11.648 11.999-11.648m0 7.681c-2.299 0-4.16 1.861-4.16 4.16 0 2.295 1.861 4.159 4.16 4.159 2.294 0 4.162-1.864 4.162-4.159 0-2.299-1.868-4.16-4.162-4.16zm0 0" fill="#fff" sketch:type="MSShapeGroup"/><path d="M15.999 120c6.629 0 12.001 4.654 12.001 11.648 0 6.834-6.054 9.769-9.28 14.14-2.637 3.569-2.721 6.212-2.721 6.212s-.02-2.656-2.72-6.212c-3.319-4.371-9.279-7.104-9.279-14.14 0-6.996 5.373-11.648 11.999-11.648m0 7.681c-2.299 0-4.16 1.861-4.16 4.16 0 2.295 1.861 4.159 4.16 4.159 2.294 0 4.162-1.864 4.162-4.159 0-2.299-1.868-4.16-4.162-4.16zm0 0" fill="#206FAC" sketch:type="MSShapeGroup"/></g></svg>
